public/logo-blank-dark.svg

<svg fill="none" height="163" viewBox="0 0 96 163" width="96" xmlns="http://www.w3.org/2000/svg"><path d="m59.5639 47.5973v1.2386c0 5.6255-.5161 10.9671-1.5482 16.0249-1.0839 5.1094-2.9934 9.8317-5.7287 14.1669-2.7354 4.3868-6.6319 8.2576-11.6897 11.6122-5.9351 3.9224-10.2445 8.1544-12.9282 12.6961-2.7354 4.593-4.103 10.167-4.103 16.722 0 5.006 1.1612 9.238 3.4836 12.696 2.2709 3.457 5.2384 6.064 8.9027 7.818 3.6127 1.755 7.4577 2.633 11.5348 2.633 3.974 0 7.7673-.826 11.38-2.478 3.6127-1.651 6.6061-4.232 8.9801-7.741 2.3741-3.458 3.7417-7.922 4.103-13.393h23.5341c-.3613 9.29-2.7095 17.135-7.0447 23.534-4.3869 6.451-10.1414 11.328-17.2635 14.632-7.1222 3.303-15.0185 4.954-23.689 4.954-9.4962 0-17.8054-1.832-24.9275-5.496-7.1222-3.613-12.64444-8.645-16.56678-15.096-3.97396-6.4-5.9609395-13.754-5.9609388-22.063.0000009-9.29 2.3224488-17.393 6.9673288-24.3087 4.64489-6.8641 10.45099-12.4896 17.41829-16.8764 5.3675-3.4063 9.3156-6.4255 11.8445-9.0576 2.4773-2.6321 4.103-5.548 4.8771-8.7478.7226-3.1482 1.0838-7.2254 1.0838-12.2316v-1.2386zm0 0 3.716 68.3577h-20.1279l2.0128-68.3577zm-8.4382-47.068185c4.2321 0 7.8705 1.496685 10.9155 4.490055 3.045 3.04498 4.5675 6.70933 4.5675 10.99293 0 4.232-1.5225 7.8447-4.5675 10.838-3.045 3.045-6.6835 4.5675-10.9155 4.5675-4.1804 0-7.793-1.5225-10.838-4.5675-3.0966-2.9933-4.6449-6.606-4.6449-10.838 0-2.8386.7225-5.4449 2.1676-7.81892 1.3935-2.32245 3.2514-4.1804 5.5739-5.57387 2.3224-1.39346 4.9029-2.090196 7.7414-2.090195z" fill="#000"/></svg>

<svg width="96" height="163" viewBox="0 0 96 163" fill="none" xmlns="http://www.w3.org/2000/svg">
  <path
    d="M59.5639 47.5973L59.5639 48.8359C59.5639 54.4614 59.0478 59.803 58.0157 64.8608C56.9318 69.9702 55.0223 74.6925 52.287 79.0277C49.5516 83.4145 45.6551 87.2853 40.5973 90.6399C34.6622 94.5623 30.3528 98.7943 27.6691 103.336C24.9337 107.929 23.5661 113.503 23.5661 120.058C23.5661 125.064 24.7273 129.296 27.0497 132.754C29.3206 136.211 32.2881 138.818 35.9524 140.572C39.5651 142.327 43.4101 143.205 47.4872 143.205C51.4612 143.205 55.2545 142.379 58.8672 140.727C62.4799 139.076 65.4733 136.495 67.8473 132.986C70.2214 129.528 71.589 125.064 71.9503 119.593L95.4844 119.593C95.1231 128.883 92.7749 136.728 88.4397 143.127C84.0528 149.578 78.2983 154.455 71.1762 157.759C64.054 161.062 56.1577 162.713 47.4872 162.713C37.991 162.713 29.6818 160.881 22.5597 157.217C15.4375 153.604 9.91526 148.572 5.99292 142.121C2.01896 135.721 0.0319805 128.367 0.0319812 120.058C0.0319821 110.768 2.35443 102.665 6.99931 95.7493C11.6442 88.8852 17.4503 83.2597 24.4176 78.8729C29.7851 75.4666 33.7332 72.4474 36.2621 69.8153C38.7394 67.1832 40.3651 64.2673 41.1392 61.0675C41.8618 57.9193 42.223 53.8421 42.223 48.8359L42.223 47.5973L59.5639 47.5973ZM59.5639 47.5973L63.2799 115.955L43.152 115.955L45.1648 47.5973L59.5639 47.5973ZM51.1257 0.529115C55.3578 0.529115 58.9962 2.0258 62.0412 5.01917C65.0862 8.06415 66.6087 11.7285 66.6087 16.0121C66.6087 20.2441 65.0862 23.8568 62.0412 26.8501C58.9962 29.8951 55.3577 31.4176 51.1257 31.4176C46.9453 31.4176 43.3327 29.8951 40.2877 26.8501C37.1911 23.8568 35.6428 20.2441 35.6428 16.0121C35.6428 13.1735 36.3653 10.5672 37.8104 8.19318C39.2039 5.87073 41.0618 4.01278 43.3843 2.61931C45.7067 1.22585 48.2872 0.529114 51.1257 0.529115Z"
    fill="black" />
</svg>
